X:1
T: Castletown Conners
C:
R:Jig
Q:180
K:Em
M:6/8
L:1/16
B2|B2e2e2 B2^c2d2|A2B2G2 F2E2D2|G2F2G2 A4A2|B4A2 B2^c2d2|B2e2e2 B2^c2|d2A2B2 G2F2E2|D2D2F2 A2d2A2|F2F2E2 E2E4B2|
B2e2e2 B2^c2d2|A2B2G2 F2E2D2|G2F2G2 A4A2|B4A2 B2^c2d2|B2e2e2 B2^c2d2|A2B2G2 F2E2D2|D2F2A2 d2A2F2|F2E2E2 E4B2|
B2E2F2 G4A2|B2A2G2 F2E2D2|B2E2F2 G4A2|B4A2 B2e2e2|B2E2F2 G4A2|B2A2G2 F2E2D2|D2F2A2 d2A2F2|F2E2E2 E4B2|
B2E2F2 G4A2|B2A2G2 F2E2D2|B2E2F2 G4A2|B4A2 B2e2e2|B2E2F2 G4A2|B2A2G2 F2E2D2|D2F2A2 d2A2F2|F2E2E2 E4||
